X:1
T:大提琴练习曲_Book1_P6_No.15
T:大提琴练习曲_Book1_P9_No.15
L:1/8
Q:1/4=80
M:4/4
K:F
V:1 bass nm="大提琴" snm="Vc."
V:1
 C,,2 C,,2 C,,2 C,,2 | F,,A,,G,,F,, E,,C,,D,,E,, | F,,A,,C,F, A,F,C,A,, | B,,D,C,B,, A,,F,,G,,A,, | %4
 B,,D,F,B, DB,F,D, | C,E,D,C, D,F,E,D, | E,G,F,E, F,A,G,F, | G,C=B,A, G,F,E,D, | C,6 z2 | %9
 C,E,D,C, =B,,G,,A,,B,, | C,E,G,=B, CA,G,E, | F,A,G,F, E,C,D,E, | F,C,A,,F,, C,,F,,A,,C, | %13
 F,A,G,F, G,B,A,G, | A,CB,A, B,DCB, | CDCA, CB,A,G, | F,C,A,,C, F,,4 |] %17

